X:240
T:Frainc a'Phoill's
T:King of the Pipers, The
R:jig
H:There are 3 other tunes called "King of the Pipers": #8, #66, #307
H:This tune comes in two distinct versions. See also #219.
D:Paddy Glackin: In Full Spate
Z:id:hn-jig-240
M:6/8
K:Dmix
|:A2D B2D|ABG FED|A2D B2D|GAG GFG|A2D B2D|ABG FDB,|CEG cBA|1 GAG GFG:|2 GAG GFE||
|:dfa afd|ded cAG|FGA cAF|GAG GFE|dfa afa|geg fdf|e^cA DFA|GAG GFE:|
|:~d3 dfd|dAG FED|dfd dAF|GEF GFE|1 dfd ^cec|BdB AFD|CEG cBA|GAG GFE:|2 d/e/fd e^cA|B/^c/dB AFD|=C/D/EG cBA|GAG GFE||
|:dDD cDD|BDD ADD|dDD cDD|GAG GFE|dDD cDD|BDD AFD|CEG cBA|1 GAG GFE:|2 GAG GFG||

